X:3024
T:Ridum, ridum
C:anon.
O:Iceland
Z:Transcribed by Frank Nordberg - http://www.musicaviva.com
F:http://abc.musicaviva.com/tunes/iceland/ridum-ridum.abc
M:C
L:1/4
K:Em
"Em"EGEG|"Em"E/F/G/F/EG|"B7"FBFB|"B7"F/G/A/G/F2:|
|:"G"BB"Am"cc|"D7"cc"G"cB|"B7"B/B/B/B/BA|[1"Em"GG"B7"F2:|[2"Em/B"G"B7"F"Em"E2|]
W:
W:
W:  From Musica Viva - http://www.musicaviva.com
W:  the Internet center for free sheet music downloads.


